packages/icons/general/PublicKey.dark.svg

<svg width="20" height="20" viewBox="0 0 20 20" xmlns="http://www.w3.org/2000/svg">
<g fill="none">
        <path
            d="M12.9159 6.25008L15.8326 3.33341M17.4993 1.66675L15.8326 3.33341L17.4993 1.66675ZM9.49092 9.67508C9.9212 10.0996 10.2633 10.6051 10.4974 11.1624C10.7315 11.7197 10.8531 12.3178 10.8551 12.9223C10.8571 13.5267 10.7396 14.1256 10.5092 14.6845C10.2788 15.2433 9.94014 15.7511 9.51271 16.1785C9.08528 16.606 8.57752 16.9446 8.01867 17.175C7.45982 17.4054 6.86092 17.523 6.25645 17.5209C5.65197 17.5189 5.05387 17.3973 4.49658 17.1632C3.93928 16.9291 3.43381 16.587 3.00925 16.1567C2.17436 15.2923 1.71239 14.1346 1.72283 12.9328C1.73327 11.7311 2.2153 10.5815 3.06508 9.73175C3.91487 8.88196 5.06443 8.39993 6.26616 8.38949C7.4679 8.37905 8.62566 8.84102 9.49008 9.67591L9.49092 9.67508ZM9.49092 9.67508L12.9159 6.25008L9.49092 9.67508ZM12.9159 6.25008L15.4159 8.75008L18.3326 5.83341L15.8326 3.33341L12.9159 6.25008Z"
            stroke="#ffffff"
            stroke-width="1.25"
            stroke-linecap="round"
            stroke-linejoin="round"
        />
    </g>
</svg>

<svg xmlns="http://www.w3.org/2000/svg" viewBox="0 0 20 20">
    <path fill="none" stroke="#fff" stroke-linecap="round" stroke-linejoin="round" stroke-width="1.25" d="m12.916 6.25 2.917-2.917m1.666-1.666-1.666 1.666 1.666-1.666ZM9.491 9.675a4.583 4.583 0 1 1-6.482 6.482A4.583 4.583 0 0 1 9.49 9.676h0Zm0 0 3.425-3.425L9.49 9.675Zm3.425-3.425 2.5 2.5 2.917-2.917-2.5-2.5-2.917 2.917Z"/>
</svg>
